packages/nouns-webapp/src/assets/wallet-brand-assets/trezor.svg

<?xml version="1.0" encoding="UTF-8"?>
<svg enable-background="new 0 0 191 210" version="1.1" viewBox="0 0 191 210" xml:space="preserve" xmlns="http://www.w3.org/2000/svg">
<style type="text/css">
	.st0{display:none;fill:#FFFFFF;stroke:#000000;}
</style>

<rect class="st0" x="320.9" y="718" width="11" height="35"/>
<path d="m95.6 19c-23.6 0-42.7 19.1-42.7 42.7v16c-8.3 1.5-16.6 3.5-16.6 6.1v83.6s0 2.3 2.6 3.4c9.4 3.8 46.4 16.9 54.9 19.9 1.1 0.4 1.4 0.4 1.7 0.4 0.4 0 0.6 0 1.7-0.4 8.5-3 45.6-16.1 55-19.9 2.4-1 2.5-3.3 2.5-3.3v-83.7c0-2.6-8.2-4.7-16.5-6.1v-16c0-23.6-19.1-42.7-42.6-42.7zm0 20.4c13.9 0 22.3 8.4 22.3 22.3v13.9c-15.6-1.1-28.9-1.1-44.6 0v-13.9c0-13.9 8.4-22.3 22.3-22.3zm-0.1 56.7c19.4 0 35.7 1.5 35.7 4.2v52.1c0 0.8-0.1 0.9-0.8 1.2s-33.1 12-33.1 12-1.3 0.4-1.7 0.4-1.7-0.5-1.7-0.5-32.4-11.7-33.1-12-0.8-0.4-0.8-1.2v-52.1c-0.2-2.7 16.1-4.1 35.5-4.1z"/>
</svg>

<?xml version="1.0" encoding="utf-8"?>
<!-- Generator: Adobe Illustrator 25.4.1, SVG Export Plug-In . SVG Version: 6.00 Build 0)  -->
<svg version="1.1"
	 id="trezor" xmlns:cc="http://creativecommons.org/ns#" xmlns:dc="http://purl.org/dc/elements/1.1/" xmlns:inkscape="http://www.inkscape.org/namespaces/inkscape" xmlns:rdf="http://www.w3.org/1999/02/22-rdf-syntax-ns#" xmlns:sodipodi="http://sodipodi.sourceforge.net/DTD/sodipodi-0.dtd" xmlns:svg="http://www.w3.org/2000/svg"
	 xmlns="http://www.w3.org/2000/svg" xmlns:xlink="http://www.w3.org/1999/xlink" x="0px" y="0px" width="191px" height="210px"
	 viewBox="0 0 191 210" style="enable-background:new 0 0 191 210;" xml:space="preserve">
<style type="text/css">
	.st0{display:none;fill:#FFFFFF;stroke:#000000;}
</style>
<sodipodi:namedview  bordercolor="#666666" borderopacity="1" fit-margin-bottom="20" fit-margin-left="20" fit-margin-right="20" fit-margin-top="20" gridtolerance="10" guidetolerance="10" id="namedview30" inkscape:current-layer="svg2" inkscape:cx="274.79362" inkscape:cy="-36.370891" inkscape:pageopacity="0" inkscape:pageshadow="2" inkscape:window-height="1129" inkscape:window-maximized="1" inkscape:window-width="1920" inkscape:window-x="0" inkscape:window-y="25" inkscape:zoom="0.76280916" objecttolerance="10" pagecolor="#ffffff" showgrid="false">
	</sodipodi:namedview>
<rect id="rect25" x="320.9" y="718" class="st0" width="11" height="35"/>
<path id="path7" inkscape:connector-curvature="0" d="M95.6,19C72,19,52.9,38.1,52.9,61.7v16c-8.3,1.5-16.6,3.5-16.6,6.1v83.6
	c0,0,0,2.3,2.6,3.4c9.4,3.8,46.4,16.9,54.9,19.9c1.1,0.4,1.4,0.4,1.7,0.4c0.4,0,0.6,0,1.7-0.4c8.5-3,45.6-16.1,55-19.9
	c2.4-1,2.5-3.3,2.5-3.3V83.8c0-2.6-8.2-4.7-16.5-6.1v-16C138.2,38.1,119.1,19,95.6,19z M95.6,39.4c13.9,0,22.3,8.4,22.3,22.3v13.9
	c-15.6-1.1-28.9-1.1-44.6,0V61.7C73.3,47.8,81.7,39.4,95.6,39.4z M95.5,96.1c19.4,0,35.7,1.5,35.7,4.2c0,0,0,51.3,0,52.1
	c0,0.8-0.1,0.9-0.8,1.2c-0.7,0.3-33.1,12-33.1,12s-1.3,0.4-1.7,0.4c-0.4,0-1.7-0.5-1.7-0.5s-32.4-11.7-33.1-12
	c-0.7-0.3-0.8-0.4-0.8-1.2c0-0.8,0-52.1,0-52.1C59.8,97.5,76.1,96.1,95.5,96.1z"/>
</svg>
